X: 14853
T: Garrett Barry's
R: jig
M: 6/8
K: Gmajor
|:DEF ~G3|AGE c2A|dcA d2e|{e}fed {B}cAG|
~F3 GFG|AGE c{(3cde}|{e}dcA GEA|DED D2 A:|
|:dcA ~d2e|{e}fed e2d|cAB ~c2d|efd ecA|
dcA ~d2e|fed (3efg e|dcA GEA|DED D2 A:|

